src/images/transferwise-white.svg

<?xml version="1.0" encoding="UTF-8"?>
<svg width="157px" height="26px" viewBox="0 0 157 26" version="1.1" xmlns="http://www.w3.org/2000/svg" xmlns:xlink="http://www.w3.org/1999/xlink">
    <!-- Generator: Sketch 55.2 (78181) - https://sketchapp.com -->
    <title>transferwise-logo-small</title>
    <desc>Created with Sketch.</desc>
    <g id="Page-1" stroke="none" stroke-width="1" fill="none" fill-rule="evenodd">
        <g id="07.-Customers" transform="translate(-358.000000, -1798.000000)" fill="#FFFFFF" fill-rule="nonzero">
            <g id="transferwise-logo-small" transform="translate(358.000000, 1798.000000)">
                <polyline id="Fill-1" points="2.59856072 0 6.04993273 5.67544681 0 11.3417343 10.4597224 11.3417343 11.4428724 9.0707666 5.6716404 9.0707666 9.16379122 5.66039116 7.123978 2.27030678 16.6406563 2.27030678 8.28623714 21.6501422 11.1487981 21.6501422 20.4903736 0 2.59856072 0"></polyline>
                <path d="M139.485293,18.5200313 C137.641309,18.2751238 136.55657,17.9254463 136.55657,16.738228 C136.55657,15.6557901 137.641309,14.9924426 138.980017,14.9924426 C140.063421,14.9924426 141.438218,15.4121837 142.305078,16.0408247 L143.462668,14.3631409 C142.377928,13.490243 140.642883,13.0371068 139.015443,13.0371068 C136.231748,13.0371068 134.17122,14.6781221 134.17122,16.8429981 C134.17122,19.3228655 135.797987,20.1256895 138.54492,20.54478 C140.100182,20.7896875 141.438218,20.9638808 141.438218,22.2558692 C141.438218,23.3383071 140.353489,23.9329024 138.907165,23.9329024 C137.496942,23.9329024 136.231748,23.5485081 135.00198,22.6048961 L133.954675,24.4567629 C134.857614,25.2595973 136.737024,25.8882382 138.834989,25.8882382 C141.72695,25.8882382 143.823578,24.246562 143.823578,22.0469693 C143.823578,19.392929 141.654772,18.7989946 139.485293,18.5200313 L139.485293,18.5200313 Z M73.4600273,18.5159007 C71.6160428,18.2709934 70.5313033,17.9213158 70.5313033,16.7340975 C70.5313033,15.6516595 71.6160428,14.9883122 72.9540883,14.9883122 C74.0381547,14.9883122 75.4122891,15.4080532 76.2791385,16.0366941 L77.4367288,14.3596712 C76.3526623,13.4861125 74.6169446,13.0329764 72.9895042,13.0329764 C70.2058194,13.0329764 68.1446178,14.6746423 68.1446178,16.8388675 C68.1446178,19.3193856 69.7720583,20.1222095 72.5203271,20.5413104 C74.0749166,20.785557 75.4122891,20.9604009 75.4122891,22.2523892 C75.4122891,23.3348375 74.3268871,23.9287719 72.8818999,23.9287719 C71.4716765,23.9287719 70.2058194,23.5443775 68.9760513,22.6014161 L67.9280737,24.4519819 C68.8316851,25.2554667 70.7124315,25.8841077 72.809049,25.8841077 C75.701684,25.8841077 77.7983121,24.2430924 77.7983121,22.0428492 C77.7983121,19.3887986 75.6295062,18.7955148 73.4600273,18.5159007 L73.4600273,18.5159007 Z M151.469531,23.8580474 C149.155024,23.8580474 147.565018,22.0762443 147.565018,19.4922675 C147.565018,17.0831245 148.939153,15.0217072 151.180136,15.0217072 C153.74795,15.0217072 154.434344,17.117831 154.507195,18.4104802 L150.068667,18.4104802 L149.237233,20.2964029 L156.929307,20.2964029 C156.964743,19.806588 156.964743,19.667762 156.964743,19.4228546 C156.964743,15.8605491 155.121422,13.0323155 151.144058,13.0323155 C147.709394,13.0323155 145.070066,15.7551181 145.070066,19.4922675 C145.070066,23.3341766 147.600445,25.8827963 151.216236,25.8827963 C153.386377,25.8827963 155.30255,25.1153293 156.459467,23.7532775 L155.012482,22.3905647 C154.072782,23.3341766 152.843675,23.8580474 151.469542,23.8580474 L151.469531,23.8580474 Z M107.987144,13.5555255 C107.227899,13.2418659 106.396466,13.1711415 105.925953,13.1711415 C104.58858,13.1711415 103.142258,13.6950124 102.456526,14.6386244 L102.346251,14.6386244 L102.346251,13.2759115 L100.033079,13.2759115 L100.033079,25.6732458 L102.419775,25.6732458 L102.419775,18.8989836 C102.419775,16.2796396 103.865414,15.2325588 105.781587,15.2325588 C106.432554,15.2325588 106.866316,15.3013315 107.445116,15.4414586 L107.987144,13.5555255 L107.987144,13.5555255 Z M41.5695581,13.5208293 C40.8103131,13.2065089 39.9788797,13.1718023 39.5083566,13.1718023 C38.1703111,13.1718023 36.8697005,13.6956733 36.1819603,14.6373232 L36.0736936,14.6373232 L36.0736936,13.2765828 L33.7598484,13.2765828 L33.7598484,25.673917 L36.1465444,25.673917 L36.1465444,18.898994 C36.1465444,16.2796499 37.4478279,15.2319185 39.3639903,15.2319185 C40.0149686,15.2319185 40.4487298,15.3020337 41.0275302,15.4414689 L41.5695581,13.5208293 L41.5695581,13.5208293 Z M20.4903736,9.08563639 L20.4903736,11.3212367 L25.8412095,11.3212367 L25.8412095,25.6732561 L28.3729236,25.6732561 L28.3729236,11.3212367 L33.7237595,11.3212367 L33.7237595,9.08563639 L20.4903736,9.08563639 L20.4903736,9.08563639 Z M49.9934842,20.8896868 C49.9934842,22.7395916 48.4388947,23.9274605 46.2694157,23.9274605 C44.9681322,23.9274605 43.8473038,23.3341869 43.8473038,21.8666938 C43.8473038,20.5059534 45.0042211,19.5976984 46.7760277,19.5976984 C48.3667063,19.5976984 49.4153568,19.8766516 49.9934842,20.2957523 L49.9934842,20.8896868 L49.9934842,20.8896868 L49.9934842,20.8896868 Z M46.6309991,13.0316649 C45.2214382,13.0316649 43.8833927,13.2405648 42.8715147,13.6249489 L43.2691764,15.512183 C44.4261042,15.1624952 45.3658045,15.022368 46.3061777,15.022368 C48.3306174,15.022368 49.9934842,15.930623 49.9934842,17.9560223 L49.9934842,18.3050492 C49.343179,18.0614532 48.3306174,17.7464822 46.8482162,17.7464822 C43.5939978,17.7464822 41.4612913,19.352791 41.4612913,21.9721247 C41.4612913,24.6962389 43.5579089,25.9181636 45.9078429,25.9181636 C47.8607672,25.9181636 49.1981397,25.1506968 49.8858799,24.241781 L49.9934842,24.241781 L49.9934842,25.6745676 L52.3079918,25.6745676 L52.3079918,17.9213158 C52.3079918,14.5345152 50.0663351,13.0316649 46.6309991,13.0316649 L46.6309991,13.0316649 Z M61.3100348,13.0316649 C59.7193563,13.0316649 58.273044,13.6262602 57.549888,14.8481748 L57.4422731,14.8481748 L57.4422731,13.2765724 L55.127776,13.2765724 L55.127776,25.6732561 L57.5137885,25.6732561 L57.5137885,18.9697081 C57.5137885,16.5245574 58.7796561,15.0570746 60.7686693,15.0570746 C62.6474073,15.0570746 63.7689087,16.0347425 63.7689087,18.3043987 L63.7689087,25.6732561 L66.1549317,25.6732561 L66.1549317,17.8859588 C66.1549317,14.7434047 64.2755208,13.0316649 61.3100348,13.0316649 L61.3100348,13.0316649 Z M82.8229912,13.0316649 C82.8229912,11.49543 83.5822362,10.6218713 85.0285485,10.6218713 C85.5712599,10.6218713 86.4387823,10.7620087 87.1258495,11.0069162 L87.8844215,9.29517648 C86.9447214,8.84137948 85.823893,8.66653556 84.9563706,8.66653556 C82.5335962,8.66653556 80.4369681,9.85375385 80.4369681,13.0316649 L80.4369681,13.4160593 L78.8462896,13.4160593 L78.8462896,15.3720456 L80.4369681,15.3720456 L80.4369681,25.6732561 L82.8229912,25.6732561 L82.8229912,15.3720456 L85.245103,15.3720456 L86.077199,13.4160593 L82.8229912,13.4160593 L82.8229912,13.0316649 L82.8229912,13.0316649 Z M92.2594683,23.8580474 C89.9456231,23.8580474 88.3549447,22.0762443 88.3549447,19.4922675 C88.3549447,17.0831348 89.7284166,15.0217072 91.9707358,15.0217072 C94.537887,15.0217072 95.2249437,17.1178412 95.2971321,18.4104802 L90.8592662,18.4104802 L90.0285057,20.2964029 L97.7192439,20.2964029 C97.754681,19.806588 97.754681,19.667762 97.754681,19.4228546 C97.754681,15.8605491 95.9113588,13.0323258 91.9339949,13.0323258 C88.4993214,13.0323258 85.8606654,15.7551285 85.8606654,19.4922675 C85.8606654,23.3341869 88.3903816,25.8827963 92.0061728,25.8827963 C94.1763142,25.8827963 96.091814,25.1153293 97.2494044,23.7532775 L95.8030816,22.3905647 C94.8633813,23.3341869 93.6336132,23.8580474 92.2594788,23.8580474 L92.2594683,23.8580474 Z M125.450559,9.08563639 L122.485072,21.9714742 L122.377468,21.9714742 L119.304378,13.2772333 L117.170999,13.2772333 L113.663485,21.9714742 L113.555207,21.9714742 L111.205284,9.08563639 L108.638133,9.08563639 L111.854916,25.6732561 L114.241612,25.6732561 L118.038521,16.4891901 L118.146125,16.4891901 L121.437768,25.6732561 L123.823118,25.6732561 L127.908759,9.08563639 L125.450559,9.08563639 L125.450559,9.08563639 Z M129.427933,9.08497551 L132.030501,9.08497551 L132.030501,11.5995392 L129.427933,11.5995392 L129.427933,9.08497551 Z M129.5362,13.2759219 L131.92155,13.2759219 L131.92155,25.6732561 L129.5362,25.6732561 L129.5362,13.2759219 Z" id="Fill-14"></path>
            </g>
        </g>
    </g>
</svg>

<svg width="157" height="26" xmlns="http://www.w3.org/2000/svg">
  <g fill="#FFF" fill-rule="nonzero">
    <path d="M2.599 0l3.45 5.675L0 11.342h10.46l.983-2.271H5.672l3.492-3.41-2.04-3.39h9.517L8.286 21.65h2.863L20.49 0H2.6M139.485 18.52c-1.844-.245-2.928-.595-2.928-1.782 0-1.082 1.084-1.746 2.423-1.746 1.083 0 2.458.42 3.325 1.049l1.158-1.678c-1.085-.873-2.82-1.326-4.448-1.326-2.783 0-4.844 1.641-4.844 3.806 0 2.48 1.627 3.283 4.374 3.702 1.555.245 2.893.419 2.893 1.71 0 1.083-1.085 1.678-2.53 1.678-1.411 0-2.676-.384-3.906-1.328l-1.047 1.852c.903.803 2.782 1.431 4.88 1.431 2.892 0 4.989-1.641 4.989-3.841 0-2.654-2.17-3.248-4.339-3.527zm-66.025-.004c-1.844-.245-2.929-.595-2.929-1.782 0-1.082 1.085-1.746 2.423-1.746 1.084 0 2.458.42 3.325 1.049l1.158-1.677c-1.084-.874-2.82-1.327-4.447-1.327-2.784 0-4.845 1.642-4.845 3.806 0 2.48 1.627 3.283 4.375 3.702 1.555.245 2.892.42 2.892 1.711 0 1.083-1.085 1.677-2.53 1.677-1.41 0-2.676-.385-3.906-1.328l-1.048 1.851c.904.803 2.784 1.432 4.881 1.432 2.893 0 4.99-1.64 4.99-3.841 0-2.654-2.17-3.247-4.339-3.527zm78.01 5.342c-2.315 0-3.905-1.782-3.905-4.366 0-2.409 1.374-4.47 3.615-4.47 2.568 0 3.254 2.096 3.327 3.388h-4.438l-.832 1.886h7.692c.036-.49.036-.628.036-.873 0-3.562-1.844-6.39-5.82-6.39-3.436 0-6.075 2.722-6.075 6.46 0 3.841 2.53 6.39 6.146 6.39 2.17 0 4.087-.768 5.243-2.13l-1.447-1.362a4.917 4.917 0 01-3.542 1.467zm-43.483-10.302c-.76-.314-1.59-.385-2.061-.385-1.337 0-2.784.524-3.47 1.468h-.11v-1.363h-2.313v12.397h2.387V18.9c0-2.62 1.445-3.666 3.362-3.666.65 0 1.084.068 1.663.208l.542-1.885zM41.57 13.52c-.76-.314-1.591-.35-2.062-.35-1.338 0-2.638.525-3.326 1.466h-.108v-1.36H33.76v12.397h2.387v-6.775c0-2.62 1.3-3.667 3.217-3.667.651 0 1.085.07 1.664.21l.542-1.921zM20.49 9.086v2.235h5.351v14.352h2.532V11.321h5.35V9.086H20.49zM49.993 20.89c0 1.85-1.554 3.037-3.724 3.037-1.3 0-2.422-.593-2.422-2.06 0-1.361 1.157-2.27 2.929-2.27 1.59 0 2.64.28 3.217.699v.594zm-3.362-7.858c-1.41 0-2.748.209-3.76.593l.398 1.887c1.157-.35 2.097-.49 3.037-.49 2.025 0 3.687.909 3.687 2.934v.349c-.65-.244-1.662-.559-3.145-.559-3.254 0-5.387 1.607-5.387 4.226 0 2.724 2.097 3.946 4.447 3.946 1.953 0 3.29-.767 3.978-1.676h.107v1.433h2.315V17.92c0-3.386-2.242-4.89-5.677-4.89zm14.679 0c-1.59 0-3.037.594-3.76 1.816h-.108v-1.571h-2.314v12.396h2.386V18.97c0-2.445 1.266-3.913 3.255-3.913 1.878 0 3 .978 3 3.247v7.37h2.386v-7.788c0-3.143-1.88-4.854-4.845-4.854zm21.513 0c0-1.537.76-2.41 2.206-2.41.542 0 1.41.14 2.097.385l.758-1.712c-.94-.454-2.06-.628-2.928-.628-2.422 0-4.519 1.187-4.519 4.365v.384h-1.59v1.956h1.59v10.301h2.386V15.372h2.422l.832-1.956h-3.254v-.384zm9.436 10.826c-2.313 0-3.904-1.782-3.904-4.366 0-2.409 1.373-4.47 3.616-4.47 2.567 0 3.254 2.096 3.326 3.388H90.86l-.83 1.886h7.69c.036-.49.036-.628.036-.873 0-3.562-1.844-6.39-5.821-6.39-3.435 0-6.073 2.722-6.073 6.46 0 3.841 2.53 6.39 6.145 6.39 2.17 0 4.086-.768 5.243-2.13l-1.446-1.362a4.918 4.918 0 01-3.544 1.467zm33.192-14.772l-2.966 12.885h-.108l-3.073-8.694h-2.133l-3.508 8.694h-.108l-2.35-12.885h-2.567l3.217 16.587h2.387l3.797-9.184h.107l3.292 9.184h2.385l4.086-16.587h-2.458zm3.977-.001h2.603V11.6h-2.603V9.085zm.108 4.19h2.386v12.398h-2.386V13.276z"/>
  </g>
</svg>
